svg/book_remove.svg

<svg xmlns="http://www.w3.org/2000/svg" viewBox="0 0 24 24"><path d="M13 19c0 1.1.3 2.12.81 3H6c-1.11 0-2-.89-2-2V4a2 2 0 0 1 2-2h1v7l2.5-1.5L12 9V2h6a2 2 0 0 1 2 2v9.09c-.33-.05-.66-.09-1-.09-3.31 0-6 2.69-6 6m9.54-2.12-1.42-1.41L19 17.59l-2.12-2.12-1.41 1.41L17.59 19l-2.12 2.12 1.41 1.42L19 20.41l2.12 2.13 1.42-1.42L20.41 19z"/></svg>

<?xml version="1.0" encoding="UTF-8"?><!DOCTYPE svg PUBLIC "-//W3C//DTD SVG 1.1//EN" "http://www.w3.org/Graphics/SVG/1.1/DTD/svg11.dtd"><svg xmlns="http://www.w3.org/2000/svg" xmlns:xlink="http://www.w3.org/1999/xlink" version="1.1" id="mdi-book-remove" width="24" height="24" viewBox="0 0 24 24"><path d="M13 19C13 20.1 13.3 21.12 13.81 22H6C4.89 22 4 21.11 4 20V4C4 2.9 4.89 2 6 2H7V9L9.5 7.5L12 9V2H18C19.1 2 20 2.89 20 4V13.09C19.67 13.04 19.34 13 19 13C15.69 13 13 15.69 13 19M22.54 16.88L21.12 15.47L19 17.59L16.88 15.47L15.47 16.88L17.59 19L15.47 21.12L16.88 22.54L19 20.41L21.12 22.54L22.54 21.12L20.41 19L22.54 16.88Z" /></svg>
